svgs/light/refrigerator.svg

<svg xmlns="http://www.w3.org/2000/svg" viewBox="0 0 384 512"><!--! Font Awesome Pro 6.0.0-alpha3 by @fontawesome - https://fontawesome.com License - https://fontawesome.com/license (Commercial License) --><path d="M288 0H96C42.98 0 0 42.98 0 96v352c0 35.35 28.65 64 64 64h256c35.35 0 64-28.65 64-64V96C384 42.98 341 0 288 0zM352 448c0 17.64-14.36 32-32 32H64c-17.64 0-32-14.36-32-32V192h224v176c0 8.836 7.164 16 16 16s16-7.164 16-16V192h64V448zM352 160h-64V112C288 103.2 280.8 96 272 96S256 103.2 256 112V160H32V96c0-35.35 28.65-64 64-64h192c35.35 0 64 28.65 64 64V160z"/></svg>

<svg xmlns="http://www.w3.org/2000/svg" viewBox="0 0 384 512"><!--! Font Awesome Pro 6.4.2 by @fontawesome - https://fontawesome.com License - https://fontawesome.com/license (Commercial License) Copyright 2023 Fonticons, Inc. --><path d="M288 32c35.3 0 64 28.7 64 64v64H288V112c0-8.8-7.2-16-16-16s-16 7.2-16 16v48H32V96c0-35.3 28.7-64 64-64H288zM256 192V368c0 8.8 7.2 16 16 16s16-7.2 16-16V192h64V448c0 17.7-14.3 32-32 32H64c-17.7 0-32-14.3-32-32V192H256zM96 0C43 0 0 43 0 96V448c0 35.3 28.7 64 64 64H320c35.3 0 64-28.7 64-64V96c0-53-43-96-96-96H96z"/></svg>
